assets/icons/qvision/article.svg

<svg xmlns="http://www.w3.org/2000/svg" height="24" viewBox="0 0 24 24" width="24"><path d="M0 0h24v24H0z" fill="none"/><path d="M19 3H5c-1.1 0-2 .9-2 2v14c0 1.1.9 2 2 2h14c1.1 0 2-.9 2-2V5c0-1.1-.9-2-2-2zm-5 14H7v-2h7v2zm3-4H7v-2h10v2zm0-4H7V7h10v2z"/></svg>

<svg width="24" height="24" viewBox="0 0 24 24" fill="none" xmlns="http://www.w3.org/2000/svg">
<g clip-path="url(#clip0_147_3901)">
<path d="M19 3H5C3.9 3 3 3.9 3 5V19C3 20.1 3.9 21 5 21H19C20.1 21 21 20.1 21 19V5C21 3.9 20.1 3 19 3ZM14 17H7V15H14V17ZM17 13H7V11H17V13ZM17 9H7V7H17V9Z" fill="#323232"/>
</g>
<defs>
<clipPath id="clip0_147_3901">
<rect width="24" height="24" fill="white"/>
</clipPath>
</defs>
</svg>
